X: 091
T: Fiddler's Frolic
C: Bert Murray
R: Bert Murray
B: Bert Murray's "Bon Accord Collection" 1999 p.9
%
Z: 2011 John Chambers <jc:trillian.mit.edu>
M: 4/4
L: 1/8
K: F
|: uC |\
A,>F .F.F/.F/ (cF)AF | DGGF ECCB, | A,>F .F.F/.F/ (cF)AF | DFEG AFFC |
A,>F .F.F/.F/ (cF)AF | DGGF ECCA, | ((3B,CD) ((3CDE) ((3DEF) ((3EFG) | AdcB AF F :|
|: uc |\
fedc =BcAF | CFAF EGGc | fedc =BcAF | DFEG AFFc |
fedc BAGF | DGGF ECCA, | ((3B,CD) ((3CDE) ((3DEF) ((3EFG) | AdcB AF F :|

%%sep 2 1 500

